frontend/svgs/biz002.svg

<?xml version="1.0" encoding="UTF-8"?> <svg width="100px" height="100px" viewBox="0 0 100 100" version="1.1" xmlns="http://www.w3.org/2000/svg" xmlns:xlink="http://www.w3.org/1999/xlink"> <g id="2.-Income-call-Copy-17" stroke="none" stroke-width="1" fill="none" fill-rule="evenodd"> <path d="M15.0475036,80.9120165 C15.4392422,79.3037542 17.1026752,78 18.749125,78 L30.2869964,78 C31.9396069,78 33.5951623,79.3090148 33.9819478,80.9120165 L37.1535769,94.0565824 C37.4125564,95.1299023 36.7189125,96 35.6279306,96 L13.3669614,96 C12.2653908,96 11.5838609,95.1318226 11.8457666,94.0565824 L15.0475036,80.9120165 Z" id="Layer-1" fill="#FF9F43"></path> <path d="M41.0475036,80.9120165 C41.4392422,79.3037542 43.1026752,78 44.749125,78 L56.2869964,78 C57.9396069,78 59.5951623,79.3090148 59.9819478,80.9120165 L63.1535769,94.0565824 C63.4125564,95.1299023 62.7189125,96 61.6279306,96 L39.3669614,96 C38.2653908,96 37.5838609,95.1318226 37.8457666,94.0565824 L41.0475036,80.9120165 Z" id="Layer-2" fill="#FF9F43"></path> <path d="M67.0475036,80.9120165 C67.4392422,79.3037542 69.1026752,78 70.749125,78 L82.2869964,78 C83.9396069,78 85.5951623,79.3090148 85.9819478,80.9120165 L89.1535769,94.0565824 C89.4125564,95.1299023 88.7189125,96 87.6279306,96 L65.3669614,96 C64.2653908,96 63.5838609,95.1318226 63.8457666,94.0565824 L67.0475036,80.9120165 Z" id="Layer-3" fill="#FF9F43"></path> <path d="M27.0475036,61.9120165 C27.4392422,60.3037542 29.1026752,59 30.749125,59 L42.2869964,59 C43.9396069,59 45.5951623,60.3090148 45.9819478,61.9120165 L49.1535769,75.0565824 C49.4125564,76.1299023 48.7189125,77 47.6279306,77 L25.3669614,77 C24.2653908,77 23.5838609,76.1318226 23.8457666,75.0565824 L27.0475036,61.9120165 Z" id="Layer-4" fill="#FF9F43"></path> <path d="M54.0475036,61.9120165 C54.4392422,60.3037542 56.1026752,59 57.749125,59 L69.2869964,59 C70.9396069,59 72.5951623,60.3090148 72.9819478,61.9120165 L76.1535769,75.0565824 C76.4125564,76.1299023 75.7189125,77 74.6279306,77 L52.3669614,77 C51.2653908,77 50.5838609,76.1318226 50.8457666,75.0565824 L54.0475036,61.9120165 Z" id="Layer-5" fill="#FF9F43"></path> <path d="M41.0475036,42.9120165 C41.4392422,41.3037542 43.1026752,40 44.749125,40 L56.2869964,40 C57.9396069,40 59.5951623,41.3090148 59.9819478,42.9120165 L63.1535769,56.0565824 C63.4125564,57.1299023 62.7189125,58 61.6279306,58 L39.3669614,58 C38.2653908,58 37.5838609,57.1318226 37.8457666,56.0565824 L41.0475036,42.9120165 Z" id="Layer-6" fill="#FF9F43"></path> <path d="M50.2139366,4.52379353 L50.2139366,21.2851864 M80.5158556,15.5527901 L69.74184,28.3927619 M96.6391699,43.4791897 L80.1324203,46.389775 M3.7887033,43.4791897 L20.2954529,46.389775 M19.9120176,15.5527901 L30.6860333,28.3927619" id="Layer-7" stroke="#FEC957" stroke-width="4" stroke-linecap="round" stroke-linejoin="round"></path> </g> </svg>

<svg width="100" height="100" xmlns="http://www.w3.org/2000/svg"><g fill="none" fill-rule="evenodd"><path d="M15.048 80.912C15.439 79.304 17.103 78 18.749 78h11.538c1.653 0 3.308 1.309 3.695 2.912l3.172 13.145C37.413 95.13 36.719 96 35.628 96H13.367c-1.102 0-1.783-.868-1.521-1.943l3.202-13.145zM41.048 80.912C41.439 79.304 43.103 78 44.749 78h11.538c1.653 0 3.308 1.309 3.695 2.912l3.172 13.145C63.413 95.13 62.719 96 61.628 96H39.367c-1.102 0-1.783-.868-1.521-1.943l3.202-13.145zM67.048 80.912C67.439 79.304 69.103 78 70.749 78h11.538c1.653 0 3.308 1.309 3.695 2.912l3.172 13.145C89.413 95.13 88.719 96 87.628 96H65.367c-1.102 0-1.783-.868-1.521-1.943l3.202-13.145zM27.048 61.912C27.439 60.304 29.103 59 30.749 59h11.538c1.653 0 3.308 1.309 3.695 2.912l3.172 13.145C49.413 76.13 48.719 77 47.628 77H25.367c-1.102 0-1.783-.868-1.521-1.943l3.202-13.145zM54.048 61.912C54.439 60.304 56.103 59 57.749 59h11.538c1.653 0 3.308 1.309 3.695 2.912l3.172 13.145C76.413 76.13 75.719 77 74.628 77H52.367c-1.102 0-1.783-.868-1.521-1.943l3.202-13.145zM41.048 42.912C41.439 41.304 43.103 40 44.749 40h11.538c1.653 0 3.308 1.309 3.695 2.912l3.172 13.145C63.413 57.13 62.719 58 61.628 58H39.367c-1.102 0-1.783-.868-1.521-1.943l3.202-13.145z" fill="#FF9F43"/><path d="M50.214 4.524v16.761m30.302-5.732l-10.774 12.84m26.897 15.086l-16.507 2.91M3.79 43.48l16.506 2.91m-.383-30.836l10.774 12.84" stroke="#FEC957" stroke-width="4" stroke-linecap="round" stroke-linejoin="round"/></g></svg>
